X: 09053
T: JENNIFER'S WALTZ
C: Bob McQuillen 11 Jul 92
B: Bob's Note Book 9 #53
%R: waltz
Z: 2018 John Chambers <jc:trillian.mit.edu>
N: That G chord in the last line is a bit odd. [jc]
M: 3/4
L: 1/8
K: D
de \
| "D"f2 d2 B2 | "D"A3 F GA | "G"B2 G3  B | "D"A4 AG | "D"F2 A2 Bc | "Bm"d2 A2 de | "G6"f2 fe df | "A7"e4 de |
| "D"f2 d2 B2 | "D"A4   FA | "G"B2 G2 B2 | "D"A4 AG | "D"F2 A2 dB |  "D"A2 d2 fa | "A7"g2 f2 e2 | "D"d4 :|
|: DE \
| "D"F2 E2 F2 | "A7"G4 EF | "A7"G2 F2 G2 | "D"A4 FG | "D"A2 A2 Bc | "Bm"d2 A2 FA | "G7"A2 G3  F | "A7"E4 DE |
| "D"F2 E2 F2 | "A7"G4 EF | "A7"G2 F2 G2 | "D"A4 FG | "D"A2 A2 Bc |  "G"d2 AF DE | "A7"F2 FD E2 | "D"D4 :|
%%begintext align
%% We all mourn the recent loss of our
%% friend, Dave Fuller. He was a greatly-valued member of Dudley
%% Laufman's Canterbury Country Dance Orchestra, and it was his
%% wonderful accordion playing that contributed so much to that
%% special Canterbury sound. This tune is for Dave and Edith's
%% lovely daughter, Jennifer, with much love, from Bob.
%%endtext

%%sep 1 1 500

%%sep 1 1 500

